X:1
T: Polskan min
C: Pers Hans
O: Dalarna, Rättvik
R: Polska
M: 3/4
L: 1/8
Z: Karl Ljungkvist, 2011-01-07
D: Bjernulf/Björklund/Lindh "Pål Olles väg" (Courage, 2008)
D:  LG Björklund i Folkmusikhuset
K: D
 "D" f2 d>f d>f | ag/a/ "G" ba gf | "A" (3:2:4 e2 dc B2 A>G | "D" FA df a>g |1 "A" e<c A4 :|2 "A" e<c "D" d4 ||
 "G" d>B (G2 G>)B | "D" A>F D4 | "A" EF GA B>d |1 (3:2:4 cB "D" A2 F2 D2 :|2 (3:2:4 cB A2 G2 F>D|E<C "D" D4 |]

